icon-themes/breeze_svg/cmd/lc_bezierappend.svg

<svg viewBox="0 0 24 24" xmlns="http://www.w3.org/2000/svg"><path d="m4 4v4h4v-4zm13 0v1 1 1h3v-3zm-12 1h2v2h-2zm13 0h1v1h-1zm-14 12v3h3v-3h-1-1zm1 1h1v1h-1z" fill="#4d4d4d"/><path d="m8 5v1h9v-1zm-3 3v9h1v-9z" fill="#1d99f3"/></svg>

<svg xmlns="http://www.w3.org/2000/svg" viewBox="0 0 24 24">
 <path 
     style="fill:#4d4d4d" 
     d="M 4 4 L 4 8 L 8 8 L 8 4 L 4 4 z M 17 4 L 17 5 L 17 6 L 17 7 L 20 7 L 20 4 L 17 4 z M 5 5 L 7 5 L 7 7 L 5 7 L 5 5 z M 18 5 L 19 5 L 19 6 L 18 6 L 18 5 z M 4 17 L 4 20 L 7 20 L 7 17 L 6 17 L 5 17 L 4 17 z M 5 18 L 6 18 L 6 19 L 5 19 L 5 18 z "
     />
 <path 
     style="fill:#1d99f3" 
     d="M 8 5 L 8 6 L 17 6 L 17 5 L 8 5 z M 5 8 L 5 17 L 6 17 L 6 8 L 5 8 z "
     />
 </svg>
